X:1003
T:Galop de la Malbaie
R:reel
O:Quebec
Z:id:hn-reel-1003
M:C|
L:1/8
K:D
DFAd f2ff | egec dBAG | FAFA GBGB | FAFA E2FE |
DFAd f2ff | egec dBAG | FAFA GBGB | Acec d4 :|
|: Acef gfge | defg a2a2 | Acef gfgb | afge fdfd |
Acef gfge | defg afge | fdec dBAG | FABc d4 :|

